!!!!SEGMENT: pl-kk--kk-i-389--008-006_anonim--missa-no-8-benedictus.krn
!!!cenid: 17xx:2511
!!!COM: Anonim
!!!COM-rismID: pe30004985
!!!CDT:
!!!CNT:
!!!OPR: [Missa] No. 8.
!!!OTL: Benedictus
!!!OMV: 006
!!!PDT:
!!!AGN: Sacred; Mass
!!!YEC: Copyright 2022 Narodowy Instytut Fryderyka Chopina (https://polishscores.org)
!!!YEM: License CC-BY-4.0 (https://creativecommons.org/licenses/by/4.0)
!!!SMS-siglum: PL-Kk
!!!SMS-shelfmark: Kk.I.389
!!!SMS-variant:
!!!SMS-altvar:
!!!SMS-shelfwork: 008-006 M
!!!NIFC-rismSourceID: 1001146182
!!!NIFC-rismChildID: 1001147247
!!!NIFC-islandoraID: pl-kk:6976
!!!URL-pdf-islandora: https://repozytorium.nifc.pl/islandora/object/pl-kk%3A6976/datastream/PDF/view
!!!URL-scan: https://polish.musicsources.pl/pl/lokalizacje/galeria/rekopisy/5999/1 @EN{Scan on Polish Music Sources Website} @PL{Skany w portalu Dziedzictwo Muzyki Polskiej w otwartym dostępie}
!!!IIIF:
!!!ONB-nifc: UWAGA: S – skan 14-15 , A – 32-34, T – 51-53 , B – 70-71. Części Mszy: Rorate, Kyrie, Gloria, Graduale, Sanctus, Benedictus, Agnus, Dona.
!!!AIN: 1 alto 1 bass 1 soprn 1 tenor
!!!key: C
**kern	**text	**kern	**text	**kern	**text	**kern	**text
*part4	*part4	*part3	*part3	*part2	*part2	*part1	*part1
*staff4	*staff4	*staff3	*staff3	*staff2	*staff2	*staff1	*staff1
*I"Basso	*	*I"Tenore	*	*I"Alto	*	*I"Canto	*
*I'B.	*	*I'T.	*	*I'A.	*	*I'C.	*
*ICvox	*	*ICvox	*	*ICvox	*	*ICvox	*
*Ibass	*	*Itenor	*	*Ialto	*	*Isoprn	*
*clefF4	*	*clefC4	*	*clefC3	*	*clefC1	*
*k[]	*	*k[]	*	*k[]	*	*k[]	*
*C:	*	*C:	*	*C:	*	*C:	*
*M3/2	*	*M3/2	*	*M3/2	*	*M3/2	*
=1	=1	=1	=1	=1	=1	=1	=1
*	*	*	*	*	*	*all\right:global	*
!	!	!LO:TX:t=P:problem:4\right:global	!	!LO:TX:t=P:problem:4\right:global	!	!	!
2AA/	Be-	4c\	Be-	4a\	Be-	1a	Be-
!	!	!LO:TX:t=P:problem:8\right:global	!	!LO:TX:t=P:problem:8\right:global	!	!	!
.	.	8B\L	.	8g#X\L	.	.	.
.	.	8d\J	.	8fn\J	.	.	.
*2\right	*	*2\right	*	*2\right	*	*	*
!LO:TX:t=P:problem:2\right:global	!	!LO:TX:t=P:problem:2\right:global	!	!LO:TX:t=P:problem:2\right:global	!	!	!
2A\	.	2c\	.	2e\	.	.	.
!	!	!	!	!	!	!LO:TX:t=P:problem:2\right:global	!
*	*	*	*	*	*	*2\right	*
2G#X\	-ne-	2d\	-ne-	2f\	-ne-	2b\	-ne-
=2	=2	=2	=2	=2	=2	=2	=2
2G#X\	-dic-	2d\	-dic-	2f\	-dic-	2b\	-di-
2A\	-tus	2c\	-tus	2e\	-tus	2a\	-ctus
2E\	qui	2B\	qui	2d\	qui	2g#X\	qui
=3	=3	=3	=3	=3	=3	=3	=3
.	.	8qqB/	.	.	.	.	.
2AA/	ve-	2A/	ve-	2c\	ve-	2ee\	ve-
2E\	-nit	2G#X/	-nit	2B/	-nit	2ee\	-nit
2r	.	2r	.	2r	.	2r	.
=4	=4	=4	=4	=4	=4	=4	=4
2AA/	Be-	4c\	Be-	4a\	Be-	2a\	Be-
.	.	8B\L	.	8g#X\L	.	.	.
!	!	!LO:TX:t=P:problem:łamanie linii w takcie	!	!	!	!	!
.	.	8d\J	.	8fn\J	.	.	.
!	!	!LO:LB:g=original	!	!	!	!	!
2A\	.	2c\	.	2e\	.	2b\	-ne-
2G#X\	-ne-	2d\	-ne-	2f\	-ne-	2r	.
=5	=5	=5	=5	=5	=5	=5	=5
2G#X\	-dic-	2d\	-dic-	2f\	-dic-	2b\	-di-
2A\	-tus	2c\	-tus	2e\	-tus	2a\	-ctus
2E\	qui	2B\	qui	2d\	qui	2g#X\	qui
!	!	!	!	!LO:LB:g=original	!	!	!
=6	=6	=6	=6	=6	=6	=6	=6
.	.	8qqB/	.	.	.	.	.
2AA/	ve-	2A\	ve-	2c\	ve-	2ee\	ve-
2E\	-nit	2G#X/	-nit	2B/	-nit	2ee\	-nit.
2r	.	4r	.	4r	.	4r	.
!	!	!	!	!	!	!LO:TX:t=P:problem:4\right:global	!
.	.	4c\	in	4e\	qui	4a\	in
!LO:LB:g=original	!	!	!	!	!	!LO:LB:g=original	!
=7	=7	=7	=7	=7	=7	=7	=7
!LO:TX:a:t=1.	!	!	!	!	!	!	!
1.r	.	2c\	ve-	1.e	ve-	2a\	no-
.	.	4B\L	-nit	.	.	4g#X\	.
.	.	4c\J	.	.	.	4a\	.
.	.	2d\	in	.	.	2b\	.
=8	=8	=8	=8	=8	=8	=8	=8
2r	.	2d\	no-	2.e\	-nit,	2b\	.
2r	.	4c\	.	.	.	4a\	.
.	.	4d\	.	4e\	ve-	4b\	.
4r	.	4c\	-mi-	4e\	-nit	4a\	-mi-
!LO:TX:t=P:problem:4\right:global	!	!	!	!	!	!	!
4A\	in	4c\	-ne	4e\	in	4a\	-ne
=9	=9	=9	=9	=9	=9	=9	=9
2A\	no-	2c\	no-	2e\	no-	2a\	no-
2G#X\	-mi-	2d\	-mi-	2e\	-mi-	2b\	-mi-
2A\	-ne	2c\	-ne	2e\	-ne	2a\	-ne
!	!	!LO:LB:g=original	!	!	!	!	!
=10	=10	=10	=10	=10	=10	=10	=10
4E\	Do-	4c\	Do-	4e\	Do-	4a\	Do-
4E\	-mi-	4B\	-mi-	4e\	-mi-	4g#X\	-mi-
2E\	-ni	2B\	-ni,	2e\	-ni,	2g#\	-ni,
!	!	!	!	!LO:TX:b:t=Volti Subito	!	!	!
2r	.	2r	.	2r	.	2r	.
!	!	!	!	!LO:PB:g=original	!	!	!
=11	=11	=11	=11	=11	=11	=11	=11
2C/	B-	4c\	Be-	4e\	Be-	2gn\	Be-
.	.	8B\L	.	8d\L	.	.	.
.	.	8A\J	.	8f\J	.	.	.
2c\	.	2G/	.	2e\	.	2cc\	.
2c\	-ne-	2A/	-ne-	2f\	-ne-	2cc\	-ne-
=12	=12	=12	=12	=12	=12	=12	=12
2c\	-dic-	2A\	-dic-	2f\	-dic-	2cc\	-dic-
2C/	-tus	2G\	-tus	2e\	-tus	2g\	-tus
2C/	qui	2e\	qui	2g\	qui	2g\	qui
!	!	!	!	!	!	!LO:LB:g=original	!
=13	=13	=13	=13	=13	=13	=13	=13
2C/	ve-	2e\	ve-	2g\	ve-	2g\	ve-
2BB/	-nit	2d\	-nit	2f\	-nit	2g\	-nit
2C/	qui	2c\	qui	2e\	qui	2g\	in
!LO:LB:g=original	!	!	!	!	!	!	!
=14	=14	=14	=14	=14	=14	=14	=14
2G\	ve-	2c\	ve-	2e\	ve-	2g\	no-
2GG/	-nit	2B\	-nit	2d\	-nit	2g\	-mi-
2G\	in	2d\	in	2f\	in	2g\	-ne
=15	=15	=15	=15	=15	=15	=15	=15
2.E\	no-	2.c\	no-	2.e\	no-	2.g\	no-
4D\	-mi-	4d\	-mi-	4f\	-mi-	4b\	-mi-
2C/	-ne	2e\	-ne	2g\	-ne	2cc\	-ne
!	!	!LO:LB:g=original	!	!	!	!	!
=16	=16	=16	=16	=16	=16	=16	=16
2F\	Do-	8d\L	Do-	8f\L	Do-	2a\	Do-
.	.	8f\	.	8a\	.	.	.
.	.	8e\	.	8g\	.	.	.
.	.	8d\J	.	8f\J	.	.	.
2G\	.	2c\	.	2e\	.	2g\	.
2GG/	-mi-	2B\	-mi-	2d\	-mi-	2g\	-mi-
=17	=17	=17	=17	=17	=17	=17	=17
2C/	-ni	2c\	-ni	2e\	-ni,	2g\	-ni
!	!	!	!	!LO:LB:g=original	!	!	!
1r	.	2r	.	2r	.	2r	.
.	.	2c\	qui	2e\	qui	2a\	qui
=18	=18	=18	=18	=18	=18	=18	=18
!LO:TX:a:t=1.	!	!	!	!	!	!	!
1.r	.	2c\	ve-	2e\	ve-	2a\	ve-
.	.	2B\	-nit,	2e\	-nit	2g#X\	-nit
.	.	2d\	qui	2e\	qui	2b\	qui
=19	=19	=19	=19	=19	=19	=19	=19
2r	.	2d\	ve-	2e\	ve-	2b\	ve-
2r	.	2c\	-nit	2e\	-nit	2a\	-nit
2AA/	in	2c\	in	2e\	in	2a\	in
!	!	!	!	!	!	!LO:LB:g=original	!
=20	=20	=20	=20	=20	=20	=20	=20
2.AA/	no-	2.e\	no-	2.c\	no-	2.cc\	no-
4BB/	-mi-	4d\	-mi-	4d\	-mi-	4b\	-mi-
2C/	-ne	2c\	-ne	2e\	-ne	2a\	-ne
=21	=21	=21	=21	=21	=21	=21	=21
2D\	Do-	2d\	Do-	2f\	Do-	2b\	Do-
2E\	.	2c\	.	2e\	.	2a\	.
2E\	-mi-	2B\	-mi-	2e\	-mi-	2g#X\	-mi-
!LO:LB:g=original	!	!	!	!	!	!	!
=22	=22	=22	=22	=22	=22	=22	=22
!	!	!LO:TX:t=P:problem:łamanie linii w takcie	!	!	!	!	!
2AA/	-ni	2c\	-ni	2e\	-ni	2a\	-ni
!	!	!LO:LB:g=original	!	!	!	!	!
2r	.	2r	.	2r	.	2r	.
2AA/	in	2c\	in	2e\	in	2a\	in
=23	=23	=23	=23	=23	=23	=23	=23
2.AA/	no-	2.e\	no-	2.c\	no-	2.cc\	no-
4BB/	-mi-	4d\	-mi-	4d\	-mi-	4b\	-mi-
2C/	-ne	2c\	-ne	2e\	-ne	2a\	-ne
!	!	!	!	!LO:LB:g=original	!	!	!
=24	=24	=24	=24	=24	=24	=24	=24
2D\	Do-	2d\	Do-	2f\	Do-	2b\	Do-
2E\	.	2c\	.	2e\	.	2a\	.
2E\	-mi-	2B\	-mi-	2e\	-mi-	2g\	-mi-
=25	=25	=25	=25	=25	=25	=25	=25
1AA	-ni.	1c	-ni	1e	-ni	1a	-ni
!LO:TX:a:t=Osanna Da Capo.	!	!LO:TX:a:t=Osanna Da Capo.	!	!	!	!	!
2r	.	2r	.	2r	.	2r	.
!LO:LB:g=original	!	!LO:PB:g=original	!	!	!	!	!
=26||	=26||	=26||	=26||	=26||	=26||	=26||	=26||
*M2/2	*	*M2/2	*	*M2/2	*	*M2/2	*
*met(C.)	*	*met(C.)	*	*met(C.)	*	*met(C.)	*
4C\	O-	2e\	O-	2g\	O-	2cc\	O-
4E\	.	.	.	.	.	.	.
4G\	.	2d\	-san-	2f\	-san-	2b\	-san-
4GG/	.	.	.	.	.	.	.
=27	=27	=27	=27	=27	=27	=27	=27
2C/	-na	2c\	-na	2e\	-na,	2g\	-na
2r	.	4r	.	4r	.	2r	.
.	.	4G/	O-	4e\	o-	.	.
!	!	!	!	!	!	!LO:LB:g=original	!
=28	=28	=28	=28	=28	=28	=28	=28
!LO:TX:a:t=1.	!	!	!	!	!	!LO:TX:a:t=1.	!
1r	.	4A/	-san-	4f\	-san-	1r	.
.	.	4G/	-na	4e\	-na	.	.
.	.	4A\	in	4f\	in	.	.
.	.	4B\	ex-	4d\	ex-	.	.
=29	=29	=29	=29	=29	=29	=29	=29
2r	.	4c\	-cel-	4e\	-cel-	2r	.
.	.	4d\	.	4f\	.	.	.
4r	.	4e\	-sis	4g\	sis	4r	.
4C/	o-	4e\	O-	4g\	o-	4cc\	O-
=30	=30	=30	=30	=30	=30	=30	=30
4C/	-san-	4e\	-san-	4g\	-san-	2cc\	-san-
!LO:TX:t=P:problem:łamanie linii w takcie	!	!	!	!LO:TX:t=P:problem:łamanie linii w takcie	!	!	!
4BB/	-na	4d\	-na	4f\	-na	.	.
!	!	!	!	!LO:LB:g=original	!	!	!
4BB/	in	4d\	in	4f\	in	2g\	.
4C/	ex-	4c\	ex-	4e\	ex-	.	.
=31	=31	=31	=31	=31	=31	=31	=31
2GG/	-celsis	4c\	-cel-	4e\	-cel-	2g\	-na
.	.	4B\	-sis,	4d\	-sis	.	.
4r	.	4r	.	4r	.	4r	.
4GG/	O-	8B\L	o-	8d\L	o-	4g\	o-
.	.	8c\J	.	8e\J	.	.	.
=32	=32	=32	=32	=32	=32	=32	=32
4G\	-san-	4d\	-san-	4f\	-san-	4b\	-san-
4D\	-na	4d\	-na	4f\	-na	4b\	-na
.	.	8qe/	.	8qqg/	.	.	.
4BB/	in	4d\	in	4f\	in	4b\	in
4GG/	ex-	8c\L	ex-	8e\L	ex-	4b\	ex-
.	.	8B\J	.	8d\J	.	.	.
=33	=33	=33	=33	=33	=33	=33	=33
4C/	-cel-	4c\	-cel-	4e\	-cel-	2g\	-cel-
4BB/	.	4d\	.	4f\	.	.	.
4C/	.	4c\	-sis,	4e\	-sis	4g\	-sis,
4E\	-sis	4e\	ex-	4g\	.	4cc\	in
=34	=34	=34	=34	=34	=34	=34	=34
.	.	8qg/	.	.	.	.	.
4F\	in	4f\	-cel-	4a\	in	4cc\	ex-
4F\	ex-	8e\L	.	8g\L	ex-	4a\	-cel-
.	.	8d\J	.	8f\J	.	.	.
2G\	-cel-	4c\	.	4e\	-cel-	2g\	.
.	.	4B\	.	4d\	.	.	.
=35	=35	=35	=35	=35	=35	=35	=35
1C	-sis.	2c\	-sis.	1e	-sis.	1g	-sis.
.	.	2r	.	.	.	.	.
==	==	==	==	==	==	==	==
*-	*-	*-	*-	*-	*-	*-	*-
!!!system-decoration: [(s1,s2,s3,s4)]
!!!ENC: Anastazja Marusiak
!!!END: 2023-11-11
!!!ENC: Leszek Kubiak
!!!END: 2024-01-17
